X: 2988
T: Bath Road Hornpipe
R: polka
M: 2/4
K: Gmajor
|:GABc|dgfd|g2 ed|BdBG|FGAB|cded|cBAG|FA D2|
GABc|dgfd|g2 ed|BdBG|FGAB|cecA|G2F2|G4:|
|:d2 ed|d2 ed|d2 fg|agdB|c2 (3dcB|c2 (3dcB|c2 ag|fedc|
d2 (3ed^c|d2 (3ed^c|d2 fg|agdf|gdec|BGAF|G2 G2|G4:|

